src/assets/svg-icons/settings-icon.svg

<svg width="32" height="33" viewBox="0 0 32 33" fill="none" xmlns="http://www.w3.org/2000/svg">
<path d="M30.0356 11.9503C29.4157 11.8576 28.824 11.6221 28.3047 11.2613C27.7853 10.9006 27.3518 10.4239 27.0362 9.86678C26.7207 9.30964 26.5313 8.6864 26.4822 8.04346C26.4331 7.40053 26.5255 6.75447 26.7525 6.1534C26.8969 5.76045 26.9181 5.33084 26.8133 4.92482C26.7085 4.5188 26.4829 4.15672 26.1681 3.88934C24.7784 2.68804 23.1966 1.74432 21.4931 1.10028C21.1053 0.951946 20.6818 0.933413 20.283 1.04732C19.8843 1.16122 19.5307 1.40176 19.2725 1.73465C18.8839 2.24615 18.3873 2.65984 17.8203 2.94435C17.2533 3.22887 16.6308 3.37673 16 3.37673C15.3692 3.37673 14.7467 3.22887 14.1797 2.94435C13.6127 2.65984 13.1161 2.24615 12.7275 1.73465C12.4694 1.40176 12.1157 1.16122 11.717 1.04732C11.3183 0.933413 10.8948 0.951946 10.5069 1.10028C8.93404 1.69489 7.46346 2.54411 6.15065 3.6159C5.81973 3.88558 5.58137 4.25724 5.47048 4.67646C5.35958 5.09567 5.38199 5.54043 5.5344 5.94559C5.77957 6.56256 5.88087 7.2301 5.83017 7.89465C5.77946 8.5592 5.57817 9.20227 5.24242 9.77228C4.90668 10.3423 4.44584 10.8233 3.89687 11.1769C3.34789 11.5304 2.72607 11.7466 2.08127 11.8081C1.66266 11.8542 1.26947 12.0374 0.959604 12.3308C0.649736 12.6241 0.439562 13.0122 0.360023 13.4378C0.162183 14.4459 0.062523 15.4718 0.062523 16.5003C0.0610689 17.3613 0.128589 18.221 0.264398 19.0706C0.331989 19.5098 0.538254 19.9139 0.851302 20.2203C1.16435 20.5268 1.56675 20.7185 1.99627 20.7659C2.65523 20.8296 3.28979 21.0548 3.84683 21.4227C4.40388 21.7906 4.86721 22.2906 5.19804 22.8807C5.52888 23.4708 5.71758 24.1338 5.74838 24.8144C5.77917 25.495 5.65114 26.1733 5.37502 26.7925C5.19432 27.1952 5.1495 27.6486 5.24767 28.0806C5.34584 28.5126 5.58138 28.8984 5.9169 29.1768C7.29827 30.3563 8.86488 31.2847 10.5494 31.9222C10.7648 31.999 10.9908 32.0396 11.2188 32.0425C11.5313 32.0418 11.8392 31.9639 12.1165 31.8155C12.3938 31.6671 12.6325 31.4523 12.8125 31.1893C13.1912 30.6214 13.6988 30.1571 14.2914 29.8369C14.8839 29.5167 15.5433 29.3502 16.2125 29.3518C16.8609 29.3527 17.5002 29.5094 18.0794 29.8094C18.6586 30.1094 19.1617 30.5445 19.5488 31.08C19.8062 31.4362 20.1709 31.6948 20.586 31.8155C21.0011 31.9362 21.4433 31.9121 21.8438 31.7472C23.3841 31.109 24.818 30.227 26.0938 29.1331C26.4142 28.8603 26.6424 28.49 26.7455 28.0753C26.8486 27.6606 26.8213 27.223 26.6675 26.8253C26.4176 26.2163 26.3087 25.5558 26.3492 24.896C26.3898 24.2362 26.5788 23.5951 26.9013 23.0234C27.2238 22.4517 27.671 21.9649 28.2076 21.6016C28.7442 21.2383 29.3554 21.0084 29.9931 20.93C30.4067 20.8711 30.7912 20.6783 31.0911 20.3793C31.3911 20.0804 31.5907 19.691 31.6613 19.2675C31.8319 18.3552 31.9244 17.4292 31.9375 16.5003C31.9377 15.5204 31.8488 14.5427 31.6719 13.58C31.6002 13.1658 31.4035 12.7854 31.1097 12.4928C30.816 12.2003 30.4402 12.0104 30.0356 11.9503ZM21.3125 16.5003C21.3125 17.5819 21.0009 18.6392 20.4172 19.5386C19.8335 20.4379 19.0038 21.1388 18.033 21.5527C17.0623 21.9667 15.9941 22.075 14.9636 21.8639C13.9331 21.6529 12.9865 21.1321 12.2435 20.3673C11.5006 19.6024 10.9946 18.628 10.7896 17.5672C10.5846 16.5063 10.6898 15.4068 11.0919 14.4075C11.494 13.4082 12.1749 12.5541 13.0486 11.9532C13.9222 11.3523 14.9493 11.0315 16 11.0315C17.409 11.0315 18.7602 11.6077 19.7565 12.6333C20.7528 13.6589 21.3125 15.0499 21.3125 16.5003Z" fill="black"/>
</svg>

<svg xmlns="http://www.w3.org/2000/svg" width="32" height="33" fill="none" viewBox="0 0 32 33"><path fill="#000" d="M30.036 11.95a4.095 4.095 0 0 1-1.731-.689 4.24 4.24 0 0 1-1.269-1.394 4.404 4.404 0 0 1-.284-3.713c.145-.394.166-.823.061-1.23a2.02 2.02 0 0 0-.645-1.035A15.57 15.57 0 0 0 21.493 1.1a1.912 1.912 0 0 0-1.21-.053 1.963 1.963 0 0 0-1.01.688 4.18 4.18 0 0 1-1.453 1.21 4.057 4.057 0 0 1-3.64 0 4.18 4.18 0 0 1-1.453-1.21 1.962 1.962 0 0 0-1.01-.688 1.913 1.913 0 0 0-1.21.053A15.628 15.628 0 0 0 6.15 3.616c-.331.27-.57.641-.68 1.06-.111.42-.089.864.063 1.27a4.38 4.38 0 0 1-.292 3.826 4.21 4.21 0 0 1-1.345 1.405c-.55.353-1.17.57-1.816.631a1.94 1.94 0 0 0-1.121.523 2.04 2.04 0 0 0-.6 1.107 16.113 16.113 0 0 0-.096 5.633c.068.439.274.843.587 1.15.313.306.716.497 1.145.545a4.067 4.067 0 0 1 1.85.657 4.212 4.212 0 0 1 1.352 1.458 4.375 4.375 0 0 1 .177 3.912c-.18.402-.226.856-.127 1.288.098.432.333.817.669 1.096a15.686 15.686 0 0 0 4.632 2.745 1.91 1.91 0 0 0 1.567-.107c.278-.148.517-.363.697-.626a4.153 4.153 0 0 1 1.478-1.352 4.018 4.018 0 0 1 1.921-.485 4.07 4.07 0 0 1 1.867.457c.58.3 1.083.735 1.47 1.271.257.356.622.615 1.037.736.415.12.857.096 1.258-.069a15.854 15.854 0 0 0 4.25-2.614c.32-.273.548-.643.651-1.058a2.08 2.08 0 0 0-.078-1.25 4.379 4.379 0 0 1 .234-3.802 4.217 4.217 0 0 1 1.307-1.421 4.07 4.07 0 0 1 1.785-.672 1.943 1.943 0 0 0 1.098-.55c.3-.3.5-.689.57-1.113.17-.912.263-1.838.276-2.767 0-.98-.088-1.957-.265-2.92a2.02 2.02 0 0 0-.562-1.087 1.923 1.923 0 0 0-1.074-.543Zm-8.724 4.55a5.584 5.584 0 0 1-.895 3.039 5.35 5.35 0 0 1-2.384 2.014 5.17 5.17 0 0 1-3.07.31 5.267 5.267 0 0 1-2.72-1.496 5.521 5.521 0 0 1-1.453-2.8c-.205-1.06-.1-2.16.302-3.16a5.437 5.437 0 0 1 1.957-2.454c.873-.6 1.9-.921 2.951-.921 1.409 0 2.76.576 3.756 1.601a5.551 5.551 0 0 1 1.556 3.867Z"/></svg>
